X: 25371
T: Marathon, The
R: hornpipe
M: 4/4
K: Edorian
|:B,2|EFGA BeBA|(3GFE (3FED EDB,D|GABe BAGA|Bee^d e2 ef|
(3gfe (3fed edBA|GdFD EDB,D|GABe dBAd|1 eEED E2:|2 eg (3fed e2||
|:ef|(3gab ge (3fga fd|(3efg ed BAGA|Befg afdf|geBd e2 ef|
~g3 e fedB|AedB AGEF|GABe dBAd|1 eg (3fed e2:|2 eEED E2||
|:EF|G2 FG EFGA|BEGB e2 dB|(3ABA FA DEFG|ADFA d2 ed|
B2 AB EFGA|BEGB e2 de|fedB ABcd|eEED E2:|

